X: 50
M:C|
L:1/8
K:F
u(A>.B)|\
v(c>.A)(F>.A) "^SEGUE"B>df>d | c>AF>A c>fa>f |\
 {a}g>^fg>a b>cd>e | (3fag (3fed  c2 A>B |
c>AF>A B>df>d | c>AF>A c>fa>f | {a}g>^fg>a b>cd>e |\
 f2 a2 f2:|
|:u(e>.f)|\
vg>^fg>a b>cd>e | f>ef>g a>c=B>c | d>gb>a g>fe>g |\
 (3fag (3fed (3cdc (3BAG |
 f2 a2 f2:|


